X: 207
T:William Gibson Graig M.P.
B:William Marshall Volume 2nd Of A Collection Of Scottish Melodies (1845)
C:William Marshall
L:1/8
M:4/4
O:Scotland
R:Strathspey
Z:Clark Bernst
%%Page:31 - 2
F:http://richardrobinson.tunebook.org.uk/tune/4050
%%TBL:{"version":1,"type":"tune","id":"4050"}
K:Eb
G/F/ [| \
EG,B,G, B,EGE | B3/2G/ A/G/F/E/ F2 FG/F/ | \
EG,B,G, GEec | B3/2G/ B/A/G/F/ E2 EG/F/ |
EG,B,G, B,EGE | B3/2G/ A/G/F/E/ F2 FG/F/ | \
EG,B,G, GEec | B3/2G/ B/A/G/F/ E2 E c/d/ [|
eEGB e/f/g/a/ be | cffe edcd | \
.e.E.c.E .G.B.e.G | F/E/D/C/ B,/C/D/B,/ E2 E c/d/ |
eEGB e/f/g/a/ be | cffe edcd | \
e3/2f/ f/e/d/c/ B/A/G/F/ EB, | CA,B,D E2 E G/F/ |]


%%TunebookLive:end
